X: 1166
T: An Chearc Is A H-Al
R: reel
M: 4/4
K: Adorian
~A3 c BG- ~G2|A2 af gedc|B2 Ad BE- ~E2|~G3 A BcdB|
~A3 c BG- ~G2|A2 af gedc|B2 Ad BE- ~E2|~G3 A BcdB|
efge ~a3 g|efga gedg|efge ~a2 bg|agge d2 Bd|
efge ~a3 g|efga gedg|efge ~a2 bg|agge d2 BG||

